client/gui/svg/preferences/CNTXT_MENU_ICON.svg

<?xml version="1.0" encoding="UTF-8"?>
<svg width="16px" height="16px" viewBox="0 0 16 16" version="1.1" xmlns="http://www.w3.org/2000/svg" xmlns:xlink="http://www.w3.org/1999/xlink">
    <!-- Generator: Sketch 48.1 (47250) - http://www.bohemiancoding.com/sketch -->
    <title>CNTXT_MENU_ICON</title>
    <desc>Created with Sketch.</desc>
    <defs></defs>
    <g id="Artboard-Copy-3" stroke="none" stroke-width="1" fill="none" fill-rule="evenodd" transform="translate(-590.000000, -421.000000)">
        <g id="CNTXT_MENU_ICON" transform="translate(590.000000, 421.000000)" fill="#FFFFFF">
            <path d="M4.22455338,6.77195503 C4.22136135,6.76882013 4.21819769,6.76565647 4.21506279,6.76246444 C3.92747341,6.46963355 3.93172249,5.99910996 4.22455338,5.71152058 L8.0037189,2 L11.7828844,5.71152058 C11.7860765,5.71465548 11.7892401,5.71781913 11.792375,5.72101117 C12.0799644,6.01384206 12.0757153,6.48436565 11.7828844,6.77195503 C11.4831522,7.0663222 11.0028551,7.0663222 10.7031228,6.77195503 L8.0037189,4.1208689 L5.30431496,6.77195503 C5.00458274,7.0663222 4.5242856,7.0663222 4.22455338,6.77195503 Z M4.22344943,9.2245285 C4.52297833,8.93003729 5.00329001,8.93003729 5.30281892,9.2245285 L8.00124263,11.8775682 L10.6996663,9.2245285 C10.9991953,8.93003729 11.4795069,8.93003729 11.7790358,9.2245285 C12.0720825,9.51264651 12.076078,9.98377358 11.78796,10.2768203 C11.7850105,10.2798201 11.7820357,10.282795 11.7790358,10.2857444 L8.00124263,14 L4.22344943,10.2857444 C3.93040275,9.99762638 3.92640728,9.52649932 4.21452529,9.23345264 C4.21747472,9.23045276 4.22044954,9.22747794 4.22344943,9.2245285 Z"></path>
        </g>
    </g>
</svg>

<svg width="16" height="16" viewBox="0 0 16 16" xmlns="http://www.w3.org/2000/svg">
    <path d="M5.302 9.225 8 11.878 10.7 9.225a.77.77 0 0 1 1.079 0 .744.744 0 0 1 0 1.06L8 14l-3.778-3.714a.744.744 0 0 1 0-1.061.77.77 0 0 1 1.08 0zM7.999 2l3.783 3.715.009.009a.744.744 0 0 1-.01 1.051.77.77 0 0 1-1.078 0L8.004 4.122 5.306 6.775a.77.77 0 0 1-1.088-.008.745.745 0 0 1 .008-1.053L7.999 2z" fill="#FFF" fill-rule="evenodd" opacity=".505"/>
</svg>
